X:1
T:Title
%%score [ 1 2 3 4 ]
L:1/8
Q:1/4=57
M:4/4
K:G
V:1 treble nm="Midi_1"
V:2 treble nm="Midi_1"
V:3 treble-8 nm="Midi_1"
V:4 bass nm="Midi_1"
V:1
 B2 | G2 (AB/c/) B3 A | G2"^Gib dich zufrieden und sei stille  (BWV 315)" (FG/A/) (G3 F) | %3
w: Gib|dich zu * * frie- den|und sei * * stil *|
w: in|ihm ruht * * al- ler|Freu- den * * Fül *|
 !fermata!E4 c2"^Johann Sebastian Bach\nText: Paul Gerhardt" B2 | e2 d2 Fc BA | %5
w: le in dem|Got- te dei * nes *|
w: le, ohn´ ihn|mühst du dich * ver *|
[M:4/4] A4 !fermata!G2 :| B2 | A2 BG A2 Bc | d2 cB cB !fermata!A2 | z2 c2 F2 e^d | %10
w: Le- bens,|Er|ist dein * Quell und *|dei- ne * Son * ne,|scheint täg- lich *|
w: \-ge- bens.|||||
 e!courtesy!=d cB Ag fe | ^d^c !fermata!B2 z2 e2 | c2 BA B^DEA | G2 FE !fermata!E2 |] %14
w: hell * zu * dei * ner *|Won * ne, gib|dich zu * frie * den, zu-|frie * * den.|
w: ||||
V:2
 E2 | E2 (FG/A/) G^D EF | FE E^D (E3 D) | E4 G3 F | EF FG F2 G2 |[M:4/4] (G2 F2) D2 :| G2 | %7
w: Gib|dich zu * * frie * den *|und * sei * stil *|le in dem|Got * te * dei- nes|Le * bens,|Er|
w: in|ihm ruht * * al * ler *|Freu * den * Fül *|le, ohn´ ihn|mühst * du * dich ver-|\-ge * bens.||
 AF GE F2 E2 | D2 E2 ED E2 | z2 E2 ^DE F2 | EF G=F E2 (AB/c/) | FE ^D2 z2 E2 | E3 F ^DFEE | %13
w: ist * dein * Quell und|dei- ne Son * ne,|scheint täg * lich|hell * zu * dei- ner * *|Won * ne, gib|dich zu- frie * den, zu-|
w: ||||||
 (E2 ^D2) B,2 |] %14
w: frie * den.|
w: |
V:3
 G2 | B2 cF GA Bc | B2 B2 (BG A2) | G4 GA B2 | BA AB c2 d2 |[M:4/4][K:treble-8] (e2 dc) B2 :| d2 | %7
w: Gib|dich zu * frie * den *|und sei stil * *|le in * dem|Got * te * dei- nes|Le * * bens,|Er|
w: in|ihm ruht * al * ler *|Freu- den Fül * *|le, ohn´ * ihn|mühst * du * dich ver-|\-ge * * bens.||
 d2 d^c d2 ^GA | AB ^G2 AB c2 | z2 c2 B3 c | BA G^G AB c2 | B2 F2 z2 B2 | AB c2 FABA | B2 AG G2 |] %14
w: ist dein * Quell und *|dei * ne Son * ne,|scheint täg- lich|hell * zu * dei * ner|Won- ne, gib|dich * zu- frie * den, zu-|frie * * den.|
w: |||||||
V:4
 E,2 | E,^D, E,D, E,F, G,A, | B,2 B,,2 E,4 | E,4 E,3 !courtesy!=D, | C, C2 B, A,2 G,2 | %5
w: Gib|dich * zu * frie * den *|und sei stil-|le in dem|Got * te dei- nes|
w: in|ihm * ruht * al * ler *|Freu- den Fül-|le, ohn´ ihn|mühst * du dich ver-|
[M:4/4] (C,2 D,2) G,,2 :| G,2 | F,D, G,2 D,E, D,!courtesy!=C, | B,,2 E,2 A,2 A,,2 | %9
w: Le * bens,|Er|ist * dein Quell * und *|dei- ne Son- ne,|
w: \-ge * bens.||||
 z2 A,2 B,C B,A, | G,F, E,D, C,B,, A,,2 | B,,2 B,,2 z2 ^G,2 | A,A,, A,2- A,F,!courtesy!=G,C, | %13
w: scheint täg * lich *|hell * zu * dei * ner|Won- ne, gib|dich zu- frie * * den, zu-|
w: ||||
 B,,A,, B,,2 E,2 |] %14
w: frie * * den.|
w: |

